icons/desktop/16/svg/pin-fill-16.svg

<svg width="16" height="16" viewBox="0 0 16 16" fill="none" xmlns="http://www.w3.org/2000/svg">
<path d="M7.23734 1.13967C7.5745 0.899293 8.04271 0.977485 8.28324 1.31448C8.52365 1.65169 8.44556 2.11988 8.10843 2.36037C7.83644 2.55429 7.57401 2.74832 7.3223 2.94338L9.74515 5.36428L12.4346 5.59963C13.1146 5.65963 13.715 6.0944 14.001 6.7344C14.2678 7.33127 14.2067 7.98081 13.8389 8.47073C13.1159 9.43273 12.421 10.1975 11.961 10.6885L11.8633 10.7852L15.7813 14.7207C16.0734 15.0142 16.0726 15.489 15.7793 15.7813C15.4859 16.0734 15.011 16.0726 14.7188 15.7793L10.7998 11.8428L10.6944 11.9492C9.88341 12.7062 9.12841 13.3464 8.44144 13.8604C8.16254 14.0693 7.82928 14.1748 7.48441 14.1748C7.24041 14.1748 6.9891 14.1207 6.7471 14.0127C6.10115 13.7237 5.66159 13.1176 5.60159 12.4317L5.36624 9.74026L2.94437 7.32131C2.73694 7.58913 2.54295 7.85237 2.36038 8.10842C2.11988 8.44556 1.6517 8.52366 1.31449 8.28323C0.977486 8.04269 0.899286 7.57449 1.13968 7.23733C1.87349 6.20818 2.79165 5.07655 3.9346 3.93459L4.27835 3.59768C5.10205 2.80379 6.08258 1.96298 7.23734 1.13967Z" fill="black"/>
</svg>

<!-- This Source Code Form is subject to the terms of the Mozilla Public
   - License, v. 2.0. If a copy of the MPL was not distributed with this
   - file, You can obtain one at http://mozilla.org/MPL/2.0/. -->
<svg xmlns="http://www.w3.org/2000/svg" width="16" height="16" fill="context-fill" fill-opacity="context-fill-opacity" viewBox="0 0 16 16">
    <path d="M7.237 1.14a.75.75 0 0 1 .871 1.22q-.408.29-.786.583l2.423 2.421 2.69.236c.68.06 1.28.494 1.566 1.134.267.597.206 1.247-.162 1.737a27 27 0 0 1-1.878 2.217l-.098.097 3.918 3.936a.75.75 0 0 1-1.062 1.058l-3.92-3.936-.105.106a28 28 0 0 1-2.253 1.911 1.6 1.6 0 0 1-.957.315c-.244 0-.495-.054-.737-.162a1.93 1.93 0 0 1-1.145-1.581L5.366 9.74 2.944 7.321q-.31.402-.584.787a.75.75 0 0 1-1.22-.87 26 26 0 0 1 2.795-3.303l.343-.337a26 26 0 0 1 2.96-2.458" />
</svg>
